24x24/apps/gnome-layout-switcher.svg

<svg xmlns="http://www.w3.org/2000/svg" width="24" height="24" version="1.1">
 <circle style="opacity:0.2" cx="12" cy="12.5" r="10"/>
 <circle style="fill:#35454c" cx="12" cy="12" r="10"/>
 <path style="opacity:0.2" d="M 17.263672,6.9998023 A 0.50003137,0.50003137 0 0 0 16.878906,7.1658179 L 14.708984,9.5759742 C 13.994794,8.9138177 13.046852,8.499802 12,8.4998023 c -2.2032136,1.6e-6 -3.9999992,1.7967867 -4,3.9999997 1.1e-6,0.793553 0.2393978,1.531161 0.640625,2.154297 L 6.7558594,16.32988 4.8378906,14.626755 a 0.50003137,0.50003137 0 0 0 -0.3671875,-0.130859 0.50003137,0.50003137 0 0 0 -0.296875,0.876953 l 2.25,2 a 0.50003137,0.50003137 0 0 0 0.6640625,0 L 9.2871094,15.417771 C 10.001834,16.082646 10.95073,16.499801 12,16.499802 c 2.203214,1e-6 3.999997,-1.796786 4,-4 0,-0.792945 -0.239965,-1.529505 -0.640625,-2.152344 a 0.50003137,0.50003137 0 0 0 0.01172,-0.01367 L 17.289063,8.2048802 19.16211,9.872849 a 0.50005831,0.50005831 0 0 0 0.666016,-0.7460938 l -2.246094,-2 A 0.50003137,0.50003137 0 0 0 17.263672,6.9998023 Z M 12,9.4998023 c 1.662621,-5e-7 2.999999,1.3373787 3,2.9999997 -2e-6,1.66262 -1.33738,3 -3,3 -1.662619,-1e-6 -2.9999976,-1.337381 -3,-3 6e-7,-1.66262 1.33738,-2.9999985 3,-2.9999997 z"/>
 <path style="opacity:0.1;fill:#f4f4f7" d="M 12,2 A 10,10 0 0 0 2,12 10,10 0 0 0 2.01075,12.291 10,10 0 0 1 12,2.5 10,10 0 0 1 21.9895,12.209 10,10 0 0 0 22,12 10,10 0 0 0 12,2 Z"/>
 <path style="fill:none;stroke:#16a085;stroke-width:0.99996275;stroke-linecap:round;stroke-linejoin:round" d="M 15,9.5 17.25,7 19.494619,9"/>
 <path style="fill:none;stroke:#16a085;stroke-width:0.99996275;stroke-linecap:round;stroke-linejoin:round" d="m 9.005,14.5 -2.2496835,2 -2.2500002,-2"/>
 <path style="fill:none;stroke:#16a085;stroke-width:1.00028503;stroke-linecap:round;stroke-linejoin:round" d="M 15.499857,12.000002 A 3.499858,3.499858 0 0 1 11.999998,15.499855 3.499858,3.499858 0 0 1 8.5001426,12.000002 3.499858,3.499858 0 0 1 11.999998,8.5001452 3.499858,3.499858 0 0 1 15.499857,12.000002 Z"/>
 <path style="opacity:0.2;fill:#f4f4f7" d="M 17.263672 6.5 A 0.50003137 0.50003137 0 0 0 16.878906 6.6660156 L 14.708984 9.0761719 C 13.994794 8.4140154 13.046852 7.9999997 12 8 C 9.7967864 8.0000016 8.0000008 9.7967864 8 12 C 8.0000001 12.098864 8.0142028 12.194001 8.0214844 12.291016 C 8.1329497 10.186285 9.8683168 8.5000015 12 8.5 C 13.046852 8.4999997 13.994794 8.9140154 14.708984 9.5761719 L 16.878906 7.1660156 A 0.50003137 0.50003137 0 0 1 17.263672 7 A 0.50003137 0.50003137 0 0 1 17.582031 7.1269531 L 19.828125 9.1269531 A 0.50005831 0.50005831 0 0 1 19.927734 9.25 A 0.50005831 0.50005831 0 0 0 19.828125 8.6269531 L 17.582031 6.6269531 A 0.50003137 0.50003137 0 0 0 17.263672 6.5 z M 15.53125 10.158203 L 15.371094 10.333984 A 0.50003137 0.50003137 0 0 1 15.359375 10.347656 C 15.710119 10.892899 15.92725 11.527906 15.978516 12.208984 C 15.982256 12.138358 16 12.07153 16 12 C 16 11.333211 15.823481 10.711158 15.53125 10.158203 z M 9.0253906 12.25 C 9.0184463 12.333692 9 12.414447 9 12.5 C 9.0000024 14.162619 10.337381 15.499999 12 15.5 C 13.66262 15.5 14.999998 14.16262 15 12.5 C 15 12.414447 14.981554 12.333692 14.974609 12.25 C 14.84622 13.792391 13.576794 15 12 15 C 10.423207 14.999999 9.1537807 13.79239 9.0253906 12.25 z M 4.4707031 13.996094 A 0.50003137 0.50003137 0 0 0 4.0683594 14.744141 A 0.50003137 0.50003137 0 0 1 4.4707031 14.496094 A 0.50003137 0.50003137 0 0 1 4.8378906 14.626953 L 6.7558594 16.330078 L 8.640625 14.654297 C 8.5716044 14.547103 8.514126 14.432031 8.4550781 14.318359 L 6.7558594 15.830078 L 4.8378906 14.126953 A 0.50003137 0.50003137 0 0 0 4.4707031 13.996094 z"/>
</svg>

<svg xmlns="http://www.w3.org/2000/svg" width="24" height="24"><circle style="opacity:.2" cx="12" cy="12.5" r="10"/><circle style="fill:#35454c" cx="12" cy="12" r="10"/><path style="opacity:.2" d="M17.264 7a.5.5 0 0 0-.385.166l-2.17 2.41A3.974 3.974 0 0 0 12 8.5c-2.203 0-4 1.797-4 4 0 .793.24 1.531.64 2.154L6.757 16.33l-1.918-1.703a.5.5 0 0 0-.367-.131.5.5 0 0 0-.297.877l2.25 2a.5.5 0 0 0 .664 0l2.2-1.955A3.973 3.973 0 0 0 12 16.5c2.203 0 4-1.797 4-4 0-.793-.24-1.53-.64-2.153a.5.5 0 0 0 .011-.013l1.918-2.13 1.873 1.669a.5.5 0 0 0 .666-.746l-2.246-2A.5.5 0 0 0 17.264 7zM12 9.5c1.663 0 3 1.337 3 3 0 1.662-1.337 3-3 3s-3-1.338-3-3c0-1.663 1.337-3 3-3z"/><path style="opacity:.1;fill:#f4f4f7" d="M12 2A10 10 0 0 0 2 12a10 10 0 0 0 .01.291A10 10 0 0 1 12 2.5a10 10 0 0 1 9.99 9.709A10 10 0 0 0 22 12 10 10 0 0 0 12 2z"/><path style="fill:none;stroke:#16a085;stroke-width:.99996275;stroke-linecap:round;stroke-linejoin:round" d="M15 9.5 17.25 7l2.245 2M9.005 14.5l-2.25 2-2.25-2"/><path style="fill:none;stroke:#16a085;stroke-width:1.00028503;stroke-linecap:round;stroke-linejoin:round" d="M15.5 12a3.5 3.5 0 0 1-3.5 3.5A3.5 3.5 0 0 1 8.5 12 3.5 3.5 0 0 1 12 8.5a3.5 3.5 0 0 1 3.5 3.5z"/><path style="opacity:.2;fill:#f4f4f7" d="M17.264 6.5a.5.5 0 0 0-.385.166l-2.17 2.41A3.974 3.974 0 0 0 12 8c-2.203 0-4 1.797-4 4 0 .099.014.194.021.291C8.133 10.186 9.868 8.5 12 8.5c1.047 0 1.995.414 2.709 1.076l2.17-2.41A.5.5 0 0 1 17.264 7a.5.5 0 0 1 .318.127l2.246 2a.5.5 0 0 1 .1.123.5.5 0 0 0-.1-.623l-2.246-2a.5.5 0 0 0-.318-.127zm-1.733 3.658-.16.176a.5.5 0 0 1-.012.014c.351.545.568 1.18.62 1.861.003-.07.021-.137.021-.209 0-.667-.177-1.289-.469-1.842zM9.025 12.25c-.007.084-.025.164-.025.25 0 1.663 1.337 3 3 3s3-1.337 3-3c0-.086-.018-.166-.025-.25A2.982 2.982 0 0 1 12 15a2.982 2.982 0 0 1-2.975-2.75zm-4.554 1.746a.5.5 0 0 0-.403.748.5.5 0 0 1 .403-.248.5.5 0 0 1 .367.131l1.918 1.703 1.885-1.676c-.07-.107-.127-.222-.186-.336l-1.7 1.512-1.917-1.703a.5.5 0 0 0-.367-.13z"/></svg>
